X: 24
T: Tipperary Waltz
%R: waltz
B: "Twenty Four Country Dances with Figures for the Year 1809", Button & Whitaker, p.12 #2
F: http://www.vwml.org/browse/browse-collections-dance-tune-books/browse-button1809
Z: 2014 John Chambers <jc:trillian.mit.edu>
M: 3/8
L: 1/16
K: G
% - - - - - - - - - - - - - - - - - - - - - - - - - - - - -
|:\
(d4B2) | (g4e2) |\
(d2B2G2) | ({B}AGAB).A2 |\
(d4B2) | (g4e2) |\
(dedcBA) | G6 :|
|:\
c4A2 | B2(dB)(dB) |\
(c2B2A2) | B4d2 |\
g4e2 | (f2a2d2) |\
(e2g2^c2) | d6 :|
|:\
B2c2c2 | c2B2G2 |\
A2B2c2 | B2c2d2 |\
e4c2 | g4e2 |\
(dedcBA) | G6 :|
% - - - - - - - - - - Dance description - - - - - - - - - -
%%begintext align
%% The 1st & 2d Cu: set & change sides, back again, down the
%% mid: up again, Allemande, & Swing Corners.
%%endtext
